;FLAVOR:Marlin
;TIME:407
;Filament used: 0.243881m
;Layer height: 0.15
;Generated with Cura_SteamEngine 4.0.0
M140 S60
M105
M190 S60
M104 S200
M105
M109 S200
M82 ;absolute extrusion mode
G21 ;metric values
G90 ;absolute positioning
M82 ;set extruder to absolute mode
M107 ;start with the fan off
G28 X0 Y0 ;move X/Y to min endstops
G28 Z0 ;move Z to min endstops
G1 Z15.0 F9000 ;move the platform down 15mm
G92 E0 ;zero the extruded length
G1 F200 E3 ;extrude 3mm of feed stock
G92 E0 ;zero the extruded length again
G1 F9000
;Put printing message on LCD screen
M117 Printing...
G92 E0
G1 F1500 E-6.5
;LAYER_COUNT:43
;LAYER:0
M107
G0 F3600 X88.465 Y94.102 Z0.3
;TYPE:SKIRT
G1 F1500 E0
G1 F1350 X89.088 Y93.617 E0.03939
G1 X89.757 Y93.197 E0.0788
G1 X90.465 Y92.848 E0.11818
G1 X91.205 Y92.571 E0.1576
G1 X91.969 Y92.371 E0.197
G1 X92.749 Y92.249 E0.23639
G1 X93.537 Y92.207 E0.27576
G1 X94.326 Y92.245 E0.31517
G1 X95.107 Y92.362 E0.35456
G1 X95.602 Y92.495 E0.38014
G1 X95.892 Y92.17 E0.40187
G1 X96.475 Y91.638 E0.44124
G1 X97.108 Y91.166 E0.48064
G1 X97.786 Y90.762 E0.52001
G1 X98.502 Y90.428 E0.55943
G1 X99.248 Y90.167 E0.59886
G1 X100.016 Y89.984 E0.63825
G1 X100.798 Y89.879 E0.67761
G1 X101.44 Y89.853 E0.70967
G1 X108.003 Y89.853 E1.0371
G1 X108.792 Y89.893 E1.07651
G1 X109.572 Y90.012 E1.11588
G1 X110.337 Y90.21 E1.1553
G1 X111.077 Y90.484 E1.19467
G1 X111.786 Y90.832 E1.23407
G1 X112.457 Y91.25 E1.27351
G1 X113.081 Y91.733 E1.31288
G1 X113.518 Y92.138 E1.3426
G1 X113.752 Y92.372 E1.35911
G1 X114.282 Y92.958 E1.39853
G1 X114.749 Y93.594 E1.4379
G1 X115.15 Y94.274 E1.47728
G1 X115.48 Y94.992 E1.51671
G1 X115.735 Y95.739 E1.55609
G1 X115.914 Y96.508 E1.59548
G1 X116.014 Y97.292 E1.63491
G1 X116.037 Y97.886 E1.66457
G1 X116.038 Y109.818 E2.25986
G1 X115.998 Y110.607 E2.29927
G1 X115.879 Y111.388 E2.33868
G1 X115.681 Y112.152 E2.37806
G1 X115.407 Y112.893 E2.41747
G1 X115.059 Y113.602 E2.45688
G1 X114.642 Y114.272 E2.49625
G1 X114.159 Y114.897 E2.53566
G1 X113.753 Y115.334 E2.56542
G1 X113.519 Y115.568 E2.58193
G1 X112.933 Y116.098 E2.62135
G1 X112.297 Y116.565 E2.66071
G1 X111.617 Y116.966 E2.7001
G1 X110.899 Y117.296 E2.73952
G1 X110.152 Y117.551 E2.7789
G1 X109.383 Y117.73 E2.81829
G1 X108.599 Y117.83 E2.85772
G1 X108.004 Y117.853 E2.88743
G1 X101.445 Y117.853 E3.21466
G1 X100.656 Y117.813 E3.25407
G1 X99.876 Y117.694 E3.29344
G1 X99.111 Y117.496 E3.33286
G1 X98.371 Y117.222 E3.37223
G1 X97.662 Y116.874 E3.41163
G1 X96.991 Y116.456 E3.45107
G1 X96.367 Y115.973 E3.49044
G1 X95.794 Y115.43 E3.52982
G1 X95.61 Y115.215 E3.54394
G1 X95.309 Y115.301 E3.55956
G1 X94.531 Y115.438 E3.59897
G1 X93.744 Y115.497 E3.63835
G1 X92.954 Y115.475 E3.67777
G1 X92.171 Y115.374 E3.71716
G1 X91.402 Y115.194 E3.75656
G1 X90.655 Y114.938 E3.79596
G1 X89.938 Y114.607 E3.83536
G1 X89.258 Y114.205 E3.87477
G1 X88.623 Y113.737 E3.91412
G1 X88.038 Y113.206 E3.95354
G1 X87.365 Y112.437 E4.00452
G1 X86.709 Y111.579 E4.05841
G1 X86.261 Y110.928 E4.09783
G1 X85.882 Y110.235 E4.13724
G1 X85.7 Y109.829 E4.15944
G1 X85.099 Y108.38 E4.2377
G1 X84.834 Y107.637 E4.27706
G1 X84.645 Y106.87 E4.31647
G1 X84.569 Y106.394 E4.34051
G1 X84.368 Y104.842 E4.41859
G1 X84.306 Y104.055 E4.45798
G1 X84.324 Y103.265 E4.4974
G1 X84.372 Y102.804 E4.52052
G1 X84.58 Y101.252 E4.59864
G1 X84.725 Y100.476 E4.63803
G1 X84.947 Y99.718 E4.67743
G1 X85.119 Y99.269 E4.70142
G1 X85.726 Y97.823 E4.77966
G1 X86.068 Y97.111 E4.81907
G1 X86.48 Y96.438 E4.85844
G1 X86.738 Y96.083 E4.88033
G1 X87.381 Y95.248 E4.93291
G1 X87.894 Y94.648 E4.97229
G1 X88.465 Y94.102 E5.01171
G0 F3600 X88.757 Y94.379
G1 F1350 X89.367 Y93.91 E5.0501
G1 X90.022 Y93.508 E5.08844
G1 X90.716 Y93.176 E5.12682
G1 X91.44 Y92.917 E5.16518
G1 X92.188 Y92.736 E5.20358
G1 X92.95 Y92.632 E5.24195
G1 X93.719 Y92.609 E5.28033
G1 X94.486 Y92.665 E5.3187
G1 X95.243 Y92.801 E5.35707
G1 X95.738 Y92.942 E5.38275
G1 X95.792 Y92.872 E5.38716
G1 X96.319 Y92.311 E5.42556
G1 X96.901 Y91.809 E5.4639
G1 X97.532 Y91.369 E5.50228
G1 X98.205 Y90.997 E5.54065
G1 X98.914 Y90.698 E5.57904
G1 X99.649 Y90.473 E5.61738
G1 X100.404 Y90.326 E5.65576
G1 X101.44 Y90.253 E5.70757
G1 X108.003 Y90.253 E6.035
G1 X108.771 Y90.293 E6.07337
G1 X109.531 Y90.412 E6.11175
G1 X110.274 Y90.61 E6.15011
G1 X110.993 Y90.884 E6.1885
G1 X111.679 Y91.231 E6.22685
G1 X112.326 Y91.647 E6.26523
G1 X112.926 Y92.128 E6.30359
G1 X113.236 Y92.42 E6.32484
G1 X113.47 Y92.654 E6.34135
G1 X113.984 Y93.226 E6.37972
G1 X114.437 Y93.848 E6.41811
G1 X114.823 Y94.513 E6.45647
G1 X115.138 Y95.215 E6.49485
G1 X115.378 Y95.946 E6.53324
G1 X115.541 Y96.697 E6.57158
G1 X115.625 Y97.462 E6.60997
G1 X115.637 Y97.886 E6.63114
G1 X115.638 Y109.818 E7.22643
G1 X115.598 Y110.586 E7.26479
G1 X115.479 Y111.346 E7.30317
G1 X115.281 Y112.09 E7.34158
G1 X115.007 Y112.808 E7.37992
G1 X114.66 Y113.495 E7.41832
G1 X114.244 Y114.142 E7.4567
G1 X113.763 Y114.742 E7.49506
G1 X113.471 Y115.052 E7.51631
G1 X113.237 Y115.286 E7.53282
G1 X112.665 Y115.8 E7.57119
G1 X112.043 Y116.253 E7.60957
G1 X111.378 Y116.639 E7.64794
G1 X110.676 Y116.954 E7.68632
G1 X109.945 Y117.194 E7.72471
G1 X109.194 Y117.357 E7.76305
G1 X108.429 Y117.441 E7.80144
G1 X108.004 Y117.453 E7.82265
G1 X101.445 Y117.453 E8.14988
G1 X100.677 Y117.413 E8.18825
G1 X99.917 Y117.294 E8.22663
G1 X99.174 Y117.096 E8.26499
G1 X98.455 Y116.822 E8.30338
G1 X97.769 Y116.475 E8.34173
G1 X97.122 Y116.059 E8.38011
G1 X96.522 Y115.578 E8.41848
G1 X95.975 Y115.037 E8.45686
G1 X95.748 Y114.76 E8.47473
G1 X95.2 Y114.915 E8.50314
G1 X94.442 Y115.046 E8.54152
G1 X93.674 Y115.098 E8.57992
G1 X92.906 Y115.07 E8.61826
G1 X92.144 Y114.962 E8.65666
G1 X91.398 Y114.776 E8.69501
G1 X90.675 Y114.513 E8.7334
G1 X89.983 Y114.177 E8.77177
G1 X89.33 Y113.77 E8.81016
G1 X88.723 Y113.298 E8.84852
G1 X88.168 Y112.766 E8.88688
G1 X87.682 Y112.194 E8.92433
G1 X87.026 Y111.336 E8.97821
G1 X86.592 Y110.701 E9.01658
G1 X86.07 Y109.676 E9.07397
G1 X85.469 Y108.227 E9.15223
G1 X85.211 Y107.502 E9.19063
G1 X85.031 Y106.755 E9.22896
G1 X84.965 Y106.342 E9.24983
G1 X84.764 Y104.79 E9.3279
G1 X84.705 Y104.024 E9.36623
G1 X84.726 Y103.255 E9.40461
G1 X84.769 Y102.857 E9.42458
G1 X84.977 Y101.305 E9.5027
G1 X85.118 Y100.549 E9.54107
G1 X85.338 Y99.812 E9.57944
G1 X85.488 Y99.424 E9.6002
G1 X86.095 Y97.978 E9.67844
G1 X86.429 Y97.285 E9.71682
G1 X87.055 Y96.327 E9.77391
G1 X87.698 Y95.492 E9.82649
G1 X88.198 Y94.908 E9.86485
G1 X88.757 Y94.379 E9.90324
G0 F3600 X89.047 Y94.656
G1 F1350 X89.644 Y94.205 E9.94057
G1 X90.286 Y93.821 E9.97789
G1 X90.965 Y93.506 E10.01524
G1 X91.673 Y93.266 E10.05253
G1 X92.403 Y93.103 E10.08985
G1 X93.147 Y93.019 E10.1272
G1 X93.895 Y93.015 E10.16452
G1 X94.639 Y93.09 E10.20183
G1 X95.371 Y93.245 E10.23916
G1 X95.811 Y93.379 E10.2621
G1 X95.887 Y93.405 E10.26611
G1 X96.218 Y92.991 E10.29256
G1 X96.746 Y92.46 E10.32992
G1 X97.327 Y91.989 E10.36723
G1 X97.955 Y91.582 E10.40457
G1 X98.622 Y91.245 E10.44185
G1 X99.322 Y90.981 E10.47917
G1 X100.046 Y90.793 E10.51649
G1 X100.786 Y90.684 E10.55381
G1 X101.44 Y90.653 E10.58647
G1 X108.003 Y90.653 E10.9139
G1 X108.75 Y90.693 E10.95122
G1 X109.488 Y90.812 E10.98852
G1 X110.21 Y91.01 E11.02587
G1 X110.906 Y91.283 E11.06317
G1 X111.569 Y91.63 E11.1005
G1 X112.192 Y92.045 E11.13785
G1 X112.953 Y92.703 E11.18804
G1 X113.187 Y92.937 E11.20455
G1 X113.687 Y93.494 E11.24189
G1 X114.124 Y94.1 E11.27917
G1 X114.495 Y94.75 E11.31651
G1 X114.794 Y95.436 E11.35384
G1 X115.018 Y96.15 E11.39117
G1 X115.165 Y96.883 E11.42847
G1 X115.237 Y97.886 E11.47864
G1 X115.238 Y109.818 E12.07393
G1 X115.198 Y110.565 E12.11125
G1 X115.079 Y111.304 E12.14859
G1 X114.881 Y112.025 E12.1859
G1 X114.608 Y112.722 E12.22324
G1 X114.262 Y113.385 E12.26055
G1 X113.847 Y114.007 E12.29786
G1 X113.188 Y114.769 E12.34812
G1 X112.954 Y115.003 E12.36463
G1 X112.397 Y115.503 E12.40197
G1 X111.791 Y115.94 E12.43925
G1 X111.141 Y116.311 E12.47659
G1 X110.455 Y116.61 E12.51392
G1 X109.741 Y116.834 E12.55125
G1 X109.008 Y116.981 E12.58855
G1 X108.004 Y117.053 E12.63877
G1 X101.445 Y117.053 E12.966
G1 X100.698 Y117.013 E13.00332
G1 X99.96 Y116.894 E13.04062
G1 X99.238 Y116.696 E13.07797
G1 X98.542 Y116.423 E13.11527
G1 X97.879 Y116.076 E13.1526
G1 X97.256 Y115.661 E13.18994
G1 X96.682 Y115.182 E13.22724
G1 X96.161 Y114.645 E13.26457
G1 X95.892 Y114.299 E13.28644
G1 X95.811 Y114.327 E13.29071
G1 X95.091 Y114.53 E13.32803
G1 X94.353 Y114.654 E13.36537
G1 X93.607 Y114.699 E13.40265
G1 X92.859 Y114.664 E13.44001
G1 X92.12 Y114.549 E13.47733
G1 X91.397 Y114.356 E13.51466
G1 X90.699 Y114.087 E13.55198
G1 X90.034 Y113.745 E13.58929
G1 X89.409 Y113.335 E13.62658
G1 X88.831 Y112.859 E13.66393
G1 X88.308 Y112.325 E13.70123
G1 X88 Y111.951 E13.7254
G1 X87.344 Y111.093 E13.77928
G1 X86.922 Y110.475 E13.81662
G1 X86.439 Y109.523 E13.86987
G1 X85.838 Y108.074 E13.94814
G1 X85.589 Y107.369 E13.98544
G1 X85.362 Y106.291 E14.0404
G1 X85.161 Y104.739 E14.11848
G1 X85.105 Y103.993 E14.1558
G1 X85.165 Y102.91 E14.20991
G1 X85.373 Y101.358 E14.28803
G1 X85.512 Y100.623 E14.32535
G1 X85.857 Y99.579 E14.38021
G1 X86.464 Y98.133 E14.45845
G1 X86.79 Y97.459 E14.4958
G1 X87.372 Y96.571 E14.54877
G1 X88.015 Y95.736 E14.60135
G1 X88.502 Y95.169 E14.63864
G1 X89.047 Y94.656 E14.67598
G0 F3600 X89.338 Y94.935
G1 F1350 X89.921 Y94.502 E14.71221
G1 X90.548 Y94.135 E14.74846
G1 X91.211 Y93.839 E14.78468
G1 X91.903 Y93.619 E14.82091
G1 X92.615 Y93.475 E14.85715
G1 X93.339 Y93.411 E14.89341
G1 X94.065 Y93.426 E14.92964
G1 X94.785 Y93.521 E14.96587
G1 X95.683 Y93.757 E15.01219
G1 X95.954 Y93.849 E15.02647
G1 X96.035 Y93.882 E15.03084
G1 X96.176 Y93.672 E15.04345
G1 X96.645 Y93.118 E15.07967
G1 X97.173 Y92.618 E15.11595
G1 X97.752 Y92.18 E15.15217
G1 X98.375 Y91.808 E15.18837
G1 X99.036 Y91.506 E15.22463
G1 X99.726 Y91.279 E15.26086
G1 X100.437 Y91.13 E15.29711
G1 X101.44 Y91.053 E15.34729
G1 X108.003 Y91.053 E15.67472
G1 X108.728 Y91.093 E15.71095
G1 X109.445 Y91.212 E15.74721
G1 X110.144 Y91.41 E15.78345
G1 X110.817 Y91.683 E15.81969
G1 X111.456 Y92.028 E15.85592
G1 X112.053 Y92.442 E15.89216
G1 X112.67 Y92.986 E15.9332
G1 X112.904 Y93.22 E15.94971
G1 X113.388 Y93.761 E15.98593
G1 X113.811 Y94.352 E16.02219
G1 X114.165 Y94.986 E16.05841
G1 X114.448 Y95.655 E16.09465
G1 X114.656 Y96.351 E16.13089
G1 X114.786 Y97.066 E16.16715
G1 X114.837 Y97.886 E16.20814
G1 X114.838 Y109.818 E16.80343
G1 X114.798 Y110.544 E16.8397
G1 X114.679 Y111.26 E16.87592
G1 X114.481 Y111.959 E16.91216
G1 X114.208 Y112.632 E16.94839
G1 X113.863 Y113.271 E16.98462
G1 X113.45 Y113.869 E17.02088
G1 X112.905 Y114.486 E17.06195
G1 X112.671 Y114.72 E17.07846
G1 X112.13 Y115.204 E17.11468
G1 X111.539 Y115.627 E17.15094
G1 X110.905 Y115.981 E17.18717
G1 X110.236 Y116.264 E17.22341
G1 X109.54 Y116.472 E17.25965
G1 X108.825 Y116.602 E17.2959
G1 X108.004 Y116.653 E17.33694
G1 X101.445 Y116.653 E17.66417
G1 X100.72 Y116.613 E17.7004
G1 X100.003 Y116.494 E17.73666
G1 X99.304 Y116.296 E17.7729
G1 X98.631 Y116.023 E17.80914
G1 X97.992 Y115.678 E17.84537
G1 X97.395 Y115.264 E17.88161
G1 X96.847 Y114.788 E17.91782
G1 X96.354 Y114.254 E17.95408
G1 X96.037 Y113.822 E17.98082
G1 X95.954 Y113.857 E17.98531
G1 X95.683 Y113.949 E17.99959
G1 X94.983 Y114.144 E18.03584
G1 X94.266 Y114.261 E18.07209
G1 X93.541 Y114.299 E18.10831
G1 X92.816 Y114.257 E18.14454
G1 X92.1 Y114.135 E18.18077
G1 X91.401 Y113.936 E18.21703
G1 X90.729 Y113.66 E18.25328
G1 X90.091 Y113.313 E18.28951
G1 X89.495 Y112.898 E18.32574
G1 X88.948 Y112.42 E18.36198
G1 X88.318 Y111.708 E18.40941
G1 X87.662 Y110.85 E18.4633
G1 X87.253 Y110.249 E18.49957
G1 X86.809 Y109.37 E18.5487
G1 X86.208 Y107.921 E18.62696
G1 X85.967 Y107.235 E18.66323
G1 X85.759 Y106.24 E18.71395
G1 X85.558 Y104.688 E18.79202
G1 X85.504 Y103.963 E18.8283
G1 X85.561 Y102.963 E18.87827
G1 X85.769 Y101.411 E18.95639
G1 X85.905 Y100.698 E18.9926
G1 X86.225 Y99.733 E19.04332
G1 X86.832 Y98.287 E19.12156
G1 X87.15 Y97.634 E19.1578
G1 X87.689 Y96.815 E19.20671
G1 X88.332 Y95.98 E19.25929
G1 X88.806 Y95.43 E19.29552
G1 X89.338 Y94.935 E19.33177
G0 F3600 X89.627 Y95.215
G1 F1350 X90.196 Y94.8 E19.36691
G1 X90.808 Y94.452 E19.40203
G1 X91.455 Y94.176 E19.43712
G1 X92.13 Y93.974 E19.47227
G1 X92.823 Y93.851 E19.50739
G1 X93.526 Y93.807 E19.54253
G1 X94.229 Y93.843 E19.57765
G1 X94.923 Y93.958 E19.61274
G1 X95.554 Y94.136 E19.64545
G1 X95.825 Y94.228 E19.65973
G1 X96.181 Y94.372 E19.67889
G1 X96.193 Y94.35 E19.68014
G1 X96.601 Y93.776 E19.71528
G1 X97.072 Y93.253 E19.75039
G1 X97.599 Y92.786 E19.78552
G1 X98.176 Y92.382 E19.82066
G1 X98.794 Y92.046 E19.85575
G1 X99.447 Y91.782 E19.89089
G1 X100.125 Y91.594 E19.926
G1 X100.821 Y91.484 E19.96115
G1 X101.44 Y91.453 E19.99207
G1 X108.003 Y91.453 E20.3195
G1 X108.706 Y91.493 E20.35463
G1 X109.4 Y91.612 E20.38976
G1 X110.075 Y91.81 E20.42486
G1 X110.724 Y92.082 E20.45996
G1 X111.338 Y92.427 E20.4951
G1 X111.909 Y92.838 E20.5302
G1 X112.387 Y93.269 E20.56231
G1 X112.621 Y93.503 E20.57882
G1 X113.09 Y94.028 E20.61394
G1 X113.496 Y94.603 E20.64906
G1 X113.834 Y95.221 E20.6842
G1 X114.101 Y95.872 E20.7193
G1 X114.291 Y96.55 E20.75443
G1 X114.404 Y97.245 E20.78956
G1 X114.437 Y97.886 E20.82158
G1 X114.438 Y109.818 E21.41687
G1 X114.398 Y110.521 E21.452
G1 X114.279 Y111.215 E21.48713
G1 X114.082 Y111.891 E21.52226
G1 X113.809 Y112.54 E21.55739
G1 X113.465 Y113.154 E21.5925
G1 X113.053 Y113.725 E21.62763
G1 X112.622 Y114.203 E21.65974
G1 X112.388 Y114.437 E21.67625
G1 X111.863 Y114.906 E21.71137
G1 X111.288 Y115.312 E21.74649
G1 X110.67 Y115.65 E21.78163
G1 X110.019 Y115.917 E21.81673
G1 X109.341 Y116.107 E21.85186
G1 X108.646 Y116.22 E21.88699
G1 X108.004 Y116.253 E21.91906
G1 X101.445 Y116.253 E22.24629
G1 X100.742 Y116.213 E22.28142
G1 X100.048 Y116.094 E22.31655
G1 X99.373 Y115.896 E22.35165
G1 X98.724 Y115.624 E22.38675
G1 X98.11 Y115.279 E22.42189
G1 X97.539 Y114.868 E22.45699
G1 X97.018 Y114.394 E22.49213
G1 X96.554 Y113.864 E22.52728
G1 X96.187 Y113.333 E22.55948
G1 X95.825 Y113.478 E22.57893
G1 X95.554 Y113.57 E22.59321
G1 X94.876 Y113.758 E22.62831
G1 X94.18 Y113.868 E22.66347
G1 X93.477 Y113.898 E22.69857
G1 X92.775 Y113.849 E22.73368
G1 X92.083 Y113.72 E22.7688
G1 X91.41 Y113.514 E22.80391
G1 X90.764 Y113.232 E22.83908
G1 X90.155 Y112.88 E22.87417
G1 X89.59 Y112.46 E22.9093
G1 X89.076 Y111.979 E22.94442
G1 X88.636 Y111.465 E22.97817
G1 X87.98 Y110.607 E23.03206
G1 X87.585 Y110.024 E23.06719
G1 X87.178 Y109.216 E23.11233
G1 X86.577 Y107.767 E23.19059
G1 X86.345 Y107.103 E23.22568
G1 X86.155 Y106.188 E23.2723
G1 X85.954 Y104.636 E23.35038
G1 X85.904 Y103.934 E23.38549
G1 X85.958 Y103.016 E23.43137
G1 X86.166 Y101.464 E23.50949
G1 X86.299 Y100.773 E23.5446
G1 X86.594 Y99.888 E23.59114
G1 X87.201 Y98.442 E23.66938
G1 X87.51 Y97.81 E23.70448
G1 X88.006 Y97.059 E23.74938
G1 X88.649 Y96.224 E23.80196
G1 X89.109 Y95.692 E23.83704
G1 X89.627 Y95.215 E23.87218
G0 F3600 X89.916 Y95.496
G1 F1350 X90.469 Y95.1 E23.90611
G1 X91.066 Y94.771 E23.94012
G1 X91.697 Y94.515 E23.97409
G1 X92.353 Y94.334 E24.00804
G1 X93.026 Y94.232 E24.042
G1 X93.707 Y94.209 E24.07599
G1 X94.385 Y94.266 E24.10994
G1 X95.052 Y94.402 E24.1439
G1 X95.425 Y94.515 E24.16334
G1 X95.696 Y94.607 E24.17762
G1 X96.327 Y94.863 E24.2116
G1 X96.355 Y94.879 E24.2132
G1 X96.617 Y94.432 E24.23905
G1 X97.028 Y93.889 E24.27303
G1 X97.499 Y93.398 E24.30697
G1 X98.025 Y92.965 E24.34096
G1 X98.598 Y92.597 E24.37494
G1 X99.21 Y92.299 E24.4089
G1 X99.853 Y92.074 E24.44289
G1 X100.517 Y91.927 E24.47682
G1 X101.44 Y91.853 E24.52301
G1 X108.003 Y91.853 E24.85044
G1 X108.683 Y91.893 E24.88442
